X:1
T:As the moments roll - Webbe
T:#
%%score [ 1 { 2 | 3 } 4 ] { ( 5 6 ) | ( 7 8 ) }
L:1/8
Q:1/4=60
M:2/4
K:G
V:1 treble nm="Alto" snm="A"
V:2 treble-8 nm="Tenor II"
V:3 treble-8 
V:4 bass nm="Bass" snm="B"
V:5 treble nm="Accomp- animent"
V:6 treble 
V:7 bass 
V:8 bass 
V:1
"^As the moments roll""^Samuel Webbe\n(1740-1816)""^allegretto"!f!"^1st time\n2nd time"!f!!p! G>G FG | %1
w: As the mo- ments|
 E2 DB | AG (GF) | G>G FG | E2 DG |[M:2/4] E>E F2 |!f! DD D (E/F/) | G2 z2 | z4 | %9
w: roll, Let new|joys in- spire; *|He- be, fill the|bowl, Or- pheus,|tune the lyre.|Let each cheer- ful *|heart,||
!p! c>"^cresc."B AG | F2!f! G>G | GF !fermata!G2 :| %12
w: Thus, be- fore we|part, we'll be|young a- gain.|
[M:6/8]!p!"^andantino""^dolce"[Q:1/4=72] B,3- B,CD | DCB, z2 B, | (G3- GF)E | %15
w: Cares * and an-|xi- e- ties we|now * * re-|
[M:6/8][Q:1/4=72][Q:1/4=72][Q:1/4=72][Q:1/4=72] (E D2) z2 D | E2 D z2 D | C2 B, z GG | %18
w: sign, * Or|drown them, or|drown then in a|
!<(! G2 G!<)!!>(! A2 G!>)! | F3 z3 | z6 | z6 | z6 | z6 |!<(! A2 A!<)! A3 | B2 G G2 D | %26
w: migh- ty bowl of|wine;|||||Drench our cold|car- ca- ses in|
!>(! G3-!>)! G2!p! G | F6 ||[M:2/4]"^allegretto"!f![Q:1/4=60] G>G FG | E2 DB | %30
w: wa\- * t'ry|flood.|As the mo- ments|roll, Let new|
[M:2/4][Q:1/4=60][Q:1/4=60][Q:1/4=60][Q:1/4=60] AG (GF) | G>G FG | E2 DG | E>E F2 || %34
w: joys in- spire; *|He- be, fill the|bowl, Or- pheus,|tune the lyre.|
!f! DD D (E/F/) | G2 z2 | z4 | c>B AG |[Q:1/4=58] F2[Q:1/4=55] G>[Q:1/4=53]G | %39
w: Let each cheer- ful *|heart,||Thus, be- fore we|part, we'll be|
[Q:1/4=52] G[Q:1/4=50]F[Q:1/4=50] !fermata!G2 |] %40
w: young a- gain.|
V:2
!f! d>d dB | c2 dd | ee d2 | d>d dB | c2 Be |[M:2/4][K:treble-8] ^c>c d2 |!f! d=c BA | G2 z2 | z4 | %9
w: As the mo- ments|roll, Let new|joys in- spire;|He- be, fill the|bowl, Or- pheus,|tune the lyre.|Let each cheer- ful|heart,||
!p! e>"^cresc."d ce | d2!f! d>e | dd !fermata!d2 :|[M:6/8]!p! G3- GAB | BAG z2 G | e3- edc | %15
w: Thus, be- fore we|part, we'll be|young a- gain.|Cares * and an-|xi- e- ties we|now * * re-|
[M:6/8][K:treble-8] (c B2) z2 B | c2 B z2 B | A2 G z dd |!<(! e2 e!<)!!>(! e2 e!>)! | d3 z2!p! A | %20
w: sign, * Or|drown them, or|drown then in a|migh- ty bowl of|wine; When|
 !wedge!d2 z z2 d | e3 e3 |!<(! f2 f f2!<)! f | g3 z3 |!<(! d2 d!<)! d3 | d2 d d2 d | %26
w: dead, Deu-|ca- lion|may, if he thinks|good,|Drench our cold|car- ca- ses in|
!>(! e3-!>)! e2!p! A | A6 ||[M:2/4]!f! d>d dB | c2 dd |[M:2/4][K:treble-8] ee d2 | d>d dB | c2 Be | %33
w: wa\- * t'ry|flood.|As the mo- ments|roll, Let new|joys in- spire;|He- be, fill the|bowl, Or- pheus,|
 ^c>c d2 ||!f! d=c BA | G2 z2 | z4 | e>d ce | d2 d>e | dd !fermata!d2 |] %40
w: tune the lyre.|Let each cheer- ful|heart,||Thus, be- fore we|part, we'll be|young a- gain.|
V:3
!f! B>B AG | G2 Bd | cc (BA) | B>B AG | G2 BB |[M:2/4][K:treble-8] A>A A2 | z4 | z2!p! B>B | %8
w: As the mo- ments|roll, Let new|joys in- spire; *|He- be, fill the|bowl, Or- pheus,|tune the lyre.||Join the|
 cd e2 | A>"^cresc."A cc | A2!f! B>c | BA !fermata!B2 :|[M:6/8] z6 | z6 | z6 | %15
w: fe- stive train;|Thus, be- fore we|part, we'll be|young a- gain.||||
[M:6/8][K:treble-8] z3 z2!p! G | G2 G z2 G | F2 G z BB |!<(! c2 c!<)!!>(! c2 c!>)! | A3 z2!p! F | %20
w: Or|drown them, or|drown then in a|migh- ty bowl of|wine; When|
 !wedge!G2 z z2 G | G2 A A3- |!<(! A2 A d2!<)! c | B3 z3 |!<(! A2 D!<)! D3 | G2 B B2 A | %26
w: dead, Deu-|ca- lion may,|* if he thinks|good,|Drench our cold|car- ca- ses in|
!>(! B3!>)! ^c3 |!p! d6 ||[M:2/4]!f! B>B AG | G2 Bd |[M:2/4][K:treble-8] cc (BA) | B>B AG | G2 BB | %33
w: wa- t'ry|flood.|As the mo- ments|roll, Let new|joys in- spire; *|He- be, fill the|bowl, Or- pheus,|
 A>A A2 || z4 | z2!f! B>B | cd e2 | A>A cc | A2 B>c | BA !fermata!B2 |] %40
w: tune the lyre.||Join the|fe- stive train;|Thus, be- fore we|part, we'll be|young a- gain.|
V:4
!f! G,>G, D,G, | C,2 G,G, | C,C, D,2 | G,>G, D,G, | C,2 G,G, |[M:2/4] A,>A, D,2 | z4 | %7
w: As the mo- ments|roll, Let new|joys in- spire;|He- be, fill the|bowl, Or- pheus,|tune the lyre.||
 z2!p! G,>=F, | E,D, C,2 | A,,>"^cresc."A,, A,,C, | D,2!f! G,,>C, | D,D, !fermata!G,,2 :| %12
w: Join the|fe- stive train;|Thus, be- fore we|part, we'll be|young a- gain.|
[M:6/8] z6 | z6 | z6 |[M:6/8] z3 z2!p! G,, | C,2 G,, z2 G,, | D,2 G, z G,,G,, | %18
w: |||Or|drown them, or|drown then in a|
!<(! C,2 C,!<)!!>(! C,2 C,!>)! | D,3 z2!p! D, | !wedge!B,,2 z z2 B,, | C,3 C,3 | %22
w: migh- ty bowl of|wine; When|dead, Deu-|ca- lion|
!<(! D,2 D, D,2!<)! D, | E,3 z3 |!<(! F,2 F,!<)! F,3 | G,2 G, G,2 F, |!>(! E,3-!>)! E,2!p! E, | %27
w: may, if he thinks|good,|Drench our cold|car- ca- ses in|wa\- * t'ry|
 D,6 ||[M:2/4]!f! G,>G, D,G, | C,2 G,G, |[M:2/4] C,C, D,2 | G,>G, D,G, | C,2 G,G, | A,>A, D,2 || %34
w: flood.|As the mo- ments|roll, Let new|joys in- spire;|He- be, fill the|bowl, Or- pheus,|tune the lyre.|
 z4 | z2!f! G,>=F, | E,D, C,2 | A,,>A,, A,,C, | D,2 G,,>C, | D,D, !fermata!G,,2 |] %40
w: |Join the|fe- stive train;|Thus, be- fore we|part, we'll be|young a- gain.|
V:5
"^allegretto"!f! [DG]>[DG] [DF][B,G] | [CE]2 [B,D][DB] | [EA][EG] [B,G][A,F] | %3
 [DG]>[DG] [DF][B,G] | [CE]2 [B,D][EG] |[M:2/4] [^CE]>[CE] [DF]2 |!f! D[=CD] [B,D]E/F/ | %7
 G2!p! B,>B, | CD E2 | [Ec]>[DB] [CA][EG] | [DF]2!f! [B,DG]>[CEG] | [DG][DF] !fermata![B,DG]2 :| %12
[M:6/8]"^andantino" z6 | z6 | [EG]3- [EG][DF][CE] |[M:6/8] [CE] [B,D]2 z2!p! [B,D] | %16
 ([CE]2 [B,D]) z2 [B,D] | ([A,C]2 B,) z [B,DG][B,DG] |!<(! [CEG]2 [CEG]!<)!!>(! [CEG]2 [CEG]!>)! | %19
!p! [DF][DFA][DFAd] [FAdf]3 | D2 z z2 D | E3 E3 |!<(! F2 F [DF]2!<)! [CF] | [B,G]3 z3 | %24
!<(! [DA]2 [DA]!<)! [DA]3 | [DB]2 [DG] [DG]2 D |!>(! [EG]3- [EG]2!>)!!p! G | F6 || %28
[M:2/4]"^allegretto"!f! [GBdg]>[GBdg] [Adf][GBdg] | [Gce]2 [GBd][Bdgb] | %30
[M:2/4] [cea][ceg] [Bdg][Adf] | [GBdg]>[GBdg] [Adf][GBdg] | [Gce]2 [GBd][GBeg] | %33
 [G^ce]>[Gce] [FAdf]2 ||!f! DD DE/F/ | [DG]2 B,B, | CD [G,CE]2 | [cec']>[deb] [cea][ceg] | %38
 [Adf]2 [Bdg]>[ceg] | [Bdg][Adf] !fermata![GBdg]2 |] %40
V:6
 x4 | x4 | x2 D2 | x4 | x4 |[M:2/4] x4 | x4 | x4 | x4 | x4 | x4 | x4 :|[M:6/8] x6 | x6 | x6 | %15
[M:6/8] x6 | x6 | x6 | x6 | x6 | x6 | x6 | x6 | x6 | x6 | x6 | x6 | x6 ||[M:2/4] x4 | x4 | %30
[M:2/4] x4 | x4 | x4 | x4 || x4 | x4 | x4 | x4 | x4 | x4 |] %40
V:7
 [G,B,]>[G,B,] [D,A,]G, | [C,G,]2 G,G, | [C,C][C,C] D,2 | [G,B,]>[G,B,] [D,A,]G, | %4
 [C,G,]2 G,[G,B,] |[M:2/4] A,>A, [D,A,]2 | z2 z A, | G,2 G,>=F, | E,D, C,2 | %9
 [A,,A,]>"^cresc."[A,,A,] [A,,A,][C,A,] | [D,A,]2 G,,>C, | [D,A,][D,A,] !fermata!G,,2 :| %12
[M:6/8]!p! [G,B,]3- [G,B,][A,C][B,D] | [B,D][A,C][G,B,] z2 [G,B,] | z6 |[M:6/8] z3 z2 [G,,G,] | %16
 ([C,G,]2 [G,,G,]) z2 [G,,G,] | [D,F,]2 G, z G,,G,, | C,2 C, C,2 C, | %19
 [D,A,][D,A,][D,A,] [D,A,]2 [D,F,A,] | x6 | G,2 A, x3 | [D,A,]2 [D,A,] D,2 D, | E,3 z3 | %24
 [F,A,]2 [F,A,] [F,A,]3 | G,2 [G,B,] [G,B,]2 [F,A,] | [E,B,]3- [E,^C]2 [E,A,C] | [D,A,D]6 || %28
[M:2/4] [G,,G,]>[G,,G,] [D,,D,][G,,G,] | [C,,C,]2 [G,,G,][G,,G,] | %30
[M:2/4] [C,,C,][C,,C,] [D,,D,][D,,D,] | [G,,G,]>[G,,G,] [D,,D,][G,,G,] | [C,,C,]2 [G,,G,][G,,G,] | %33
 [A,,A,]>[A,,A,] [D,,D,]2 || D=C B,[A,C] | [G,B,]2 [G,,G,]>[=F,,=F,] | [E,,E,][D,,D,] [C,,C,]2 | %37
 [A,,,A,,]>[A,,,A,,] [A,,,A,,][C,,C,] | [D,,D,]2 [G,,,G,,]>[C,,C,] | %39
 [D,,D,][D,,D,] !fermata![G,,,G,,]2 |] %40
V:8
 x4 | x4 | x4 | x4 | x4 |[M:2/4] x4 | x4 | x4 | x4 | x4 | x4 | x4 :|[M:6/8] x6 | x6 | x6 | %15
[M:6/8] x6 | x6 | x6 | x6 | x6 | [B,,G,]2 z z2 [B,,G,] | C,3 [C,A,]3 | x6 | x6 | x6 | x6 | x6 | %27
 x6 ||[M:2/4] x4 | x4 |[M:2/4] x4 | x4 | x4 | x4 || x4 | x4 | x4 | x4 | x4 | x4 |] %40

